X:262
T:Coleraine
M:6/8
L:1/8
C:Trad
R:Jig
K:Am
D||:"Am"EAA ABc|"G"B2e e2d| "C"cBA ABc| "E"B^GE E2 D|"Am"E2A ABc|
"G"B2e e2d|"Am"cBA "E"B^GE|"Am"A3 A2:|
B|"C"c2c cdc|"G"B2g g2^g|"Am"aed cBA|"E"^GB^G E^F^G|"Am"A^GA "Bm"BAB|
"C"cde "Dm"fed|"Am"cBA "E"B^GE|"Am"A3 A2:|
% Written by ABC2Win  Version 2.2 beta 4  on 11/1/2005
% Written by ABC2Win  2.2.119 on 2/16/2006
% Written by ABC2Win  2.2.119 on 2/18/2006
